www/assets/icons/approval.svg

<svg xmlns="http://www.w3.org/2000/svg" width="24" height="24" viewBox="0 0 24 24" fill='currentColor'><path d="M4 16v6h16v-6c0-1.1-.9-2-2-2H6c-1.1 0-2 .9-2 2m14 2H6v-2h12zM12 2C9.24 2 7 4.24 7 7l5 7 5-7c0-2.76-2.24-5-5-5m0 9L9 7c0-1.66 1.34-3 3-3s3 1.34 3 3z"/></svg>

<svg width="24" height="24" viewBox="0 0 24 24" xmlns="http://www.w3.org/2000/svg" fill='currentColor'><path d="M4 16V22H20V16C20 14.9 19.1 14 18 14H6C4.9 14 4 14.9 4 16ZM18 18H6V16H18V18ZM12 2C9.24 2 7 4.24 7 7L12 14L17 7C17 4.24 14.76 2 12 2ZM12 11L9 7C9 5.34 10.34 4 12 4C13.66 4 15 5.34 15 7L12 11Z"/></svg>
